images/ins.svg

<svg width="18" height="18" viewBox="0 0 18 18" fill="none" xmlns="http://www.w3.org/2000/svg">
<path d="M12.492 0.666748H5.50866C2.47533 0.666748 0.666992 2.47508 0.666992 5.50841V12.4834C0.666992 15.5251 2.47533 17.3334 5.50866 17.3334H12.4837C15.517 17.3334 17.3253 15.5251 17.3253 12.4917V5.50841C17.3337 2.47508 15.5253 0.666748 12.492 0.666748ZM9.00033 12.2334C7.21699 12.2334 5.76699 10.7834 5.76699 9.00008C5.76699 7.21675 7.21699 5.76675 9.00033 5.76675C10.7837 5.76675 12.2337 7.21675 12.2337 9.00008C12.2337 10.7834 10.7837 12.2334 9.00033 12.2334ZM13.9337 4.73342C13.892 4.83342 13.8337 4.92508 13.7587 5.00841C13.6753 5.08341 13.5837 5.14175 13.4837 5.18341C13.3837 5.22508 13.2753 5.25008 13.167 5.25008C12.942 5.25008 12.7337 5.16675 12.5753 5.00841C12.5003 4.92508 12.442 4.83342 12.4003 4.73342C12.3587 4.63342 12.3337 4.52508 12.3337 4.41675C12.3337 4.30841 12.3587 4.20008 12.4003 4.10008C12.442 3.99175 12.5003 3.90841 12.5753 3.82508C12.767 3.63341 13.0587 3.54175 13.3253 3.60008C13.3837 3.60841 13.4337 3.62508 13.4837 3.65008C13.5337 3.66675 13.5837 3.69175 13.6337 3.72508C13.6753 3.75008 13.717 3.79175 13.7587 3.82508C13.8337 3.90841 13.892 3.99175 13.9337 4.10008C13.9753 4.20008 14.0003 4.30841 14.0003 4.41675C14.0003 4.52508 13.9753 4.63342 13.9337 4.73342Z" fill="#292D32"/>
</svg>

<svg xmlns="http://www.w3.org/2000/svg" width="18" height="18" fill="none"><path fill="#292D32" d="M12.492.667H5.509C2.475.667.667 2.475.667 5.508v6.975c0 3.042 1.808 4.85 4.842 4.85h6.975c3.033 0 4.841-1.808 4.841-4.841V5.508c.009-3.033-1.8-4.841-4.833-4.841ZM9 12.233A3.236 3.236 0 0 1 5.767 9 3.236 3.236 0 0 1 9 5.767 3.236 3.236 0 0 1 12.234 9 3.236 3.236 0 0 1 9 12.233Zm4.934-7.5c-.042.1-.1.192-.175.275a.963.963 0 0 1-.275.175.83.83 0 0 1-.909-.175.963.963 0 0 1-.175-.275.83.83 0 0 1-.066-.316.83.83 0 0 1 .066-.317.86.86 0 0 1 .175-.275.832.832 0 0 1 .909-.175c.05.017.1.042.15.075.041.025.083.067.125.1a.86.86 0 0 1 .175.275.83.83 0 0 1 .066.317.83.83 0 0 1-.066.316Z"/></svg>
